X: 1708
T: Sen Bu Yerden Gideli
C: Şevki Bey
O: Turkey
F: http://compmusic.upf.edu/node/140
N: hicaz--sarki--aksak--sen_bu_yerden--sevki_bey
N: makam= hicaz
N: form= sarki
N: usul= aksak = 9/8
M: 9/8
L: 1/16
K: C _7/8B ^f ^c 
Q: 1/4=156
%%MIDI tuningsystem comma53
dcde c2B2 A2G2 A2B2 c2 | d2 efg2 =feed dcd2 e2^f2  | 
w:  ARANAĞME  |   | 
gfgb a2g2 =f2e2 d2c2 B2 | AB cde2 dccB BAA2 B2c2  | 
w:   |   | 
dcde c2B2 A2G2 A2B2 c2 | d2 efg2 =feed dcd2 e2^f2  | 
w:  ARANAĞME  |   | 
gfgb a2g2 =f2e2 d2c2 B2 | AB cde2 dccB BAA4z2  | 
w:   |   | 
z4 c2d2 d4 dcBA B2 | c2 d2dc (3BABc2 d2dc BAG2  | 
w:  Sen  bu  yer den   |  gi de li  *  *  *  *  gi de li   | 
g2=fe eddc d8 z2 | =c2 d6dc dec2 _1/4B2A2  | \
w:  gi de *  li  *  a *  man   |  ey   | 
z2GA _1/4B2=c2 d2e2 =fge2 ed | 
w:  sa *  *  *  *  *  *  *  *  çı   | 
d6 e=fed =cde3dcd  | e4 d2e2 e4 e2d2 =c2 | \
w:  zer   SAZ  |  *  Se ni  söy ler   | 
=f2 f2e2 d2d2 {f}edd4z2  | 
w:  ba na  *  *  dağ *  *  *  lar   | 
=c2d14 z2 | =c2 e6e3dd4c2  | e3d d2=c2 e3d d2c2 c_1/4B | \
w:  de   |  de re  |   | 
_1/4B6 d2d=c B^AB2 c2^c2  | 
w:  ler   SAZ  | 
d4 c2d2 cBBA A4 z2 | d2 d2c2 B2A2 B2dc BAGF  | 
w:  *  Se ni  söy *  *  *  ler   |  ba na  *  *  dağ *  lar   | 
G2A8-A2 AGFE D2 | A2 _1/4B8-_1/4B2_7/8B2 A2G2  | \
w:  de re   |  de re   | 
d2d2 c2B2 A2G2 dcB2 BA | 
w:  de re  | 
A6 a=bag fga3gfg  | a4 g2a2 a4 g2f2 e2 | \
w:  ler   SAZ  |  *  Gay ret_ i  â  | 
d4f2 g2f2 d2e4ed  | 
w:  *  hım_ i le   | 
d6=c=B AGFE D4 z2 | f4g3fe4f3ed2  | z2de f2g2 a2=b2 a2g2 f2 | 
w:  bâd_ SAZ  |  in   |  in  | 
g6 a=bag fga3gfg  | a4 g2a2 a4 g2=f2 e2 | \
w:  ler   SAZ  |  *  Gay ret_ i  â  | 
d2 =c2d2 e2c2 d2c2 _1/4B2BA  | 
w:  *  *  hım_ i le   | 
A2=fe edd=c c_1/4BBA A4 z2 | =c2 d6dc dec2 _1/4B2A2  | 
w:  bâd  SAZ  |  in   | 
z2GA _1/4B2=c2 d2e2 =fge2 ed | d6 e=fed =cde3dcd  | 
w:  in  |  ler   SAZ  | 
e4 d2e2 e4 e2d2 =c2 | =f2 f2e2 d2d2 {f}edd4z2  | \
w:  *  Se ni  söy ler   |  ba na  *  *  dağ *  *  *  lar   | 
=c2d14 z2 | =c2 e6e3dd4c2  | 
w:  de   |  de re  | 
e3d d2=c2 e3d d2c2 c_1/4B | _1/4B6 d2d=c B^AB2 c2^c2  | \
w:   |  ler   SAZ  | 
d4 c2d2 cBBA A4 z2 | 
w:  *  Se ni  söy *  *  *  ler   | 
d2 d2c2 B2A2 B2dc BAGF  | G2A8-A2 AGFE D2 | \
w:  ba na  *  *  dağ *  lar   |  de re   | 
A2 _1/4B8-_1/4B2_7/8B2 A2G2  | 
w:  de re   | 
d2d2 c2B2 A2G2 dcB2 BA | A6 e=fed cBA6  | |


